X: 1
T:Cabar Feidh
M:C
L:1/8
Q:80
C:Trad. arr. M. Grey
S:Reel
K:HP
[| e|
{gf}g2ae{gf}g2{a}de|
{gf}g2{ade}dc{g}B{d}G{e}G{d}B|
{g}AB{g}c{d}A{ag}a2ef|  !
{ag}a2{ef}ed{g}c{d}A{e}A{d}B{gf}g2ae{gf}g2{a}de|
{gf}g2{ade}dc{g}B{d}G{e}G{d}B|
{g}AB{GdG}cd{g}ef{a}ge|  !
{ag}a2{ef}ed{g}c{d}A{e}A{d}B|] [|
{g}G{d}G{g}dG{g}B{d}G{g}dB|
{g}G{d}G{g}dG{g}B{d}G{e}G{d}B|  !
{g}Ae{A}eA{gAGAG}A2{g}ec|
{g}Ae{g}fe{g}c{d}A{e}A{d}B{g}G{d}G{g}dG{g}B{d}G{g}dB|
{g}Gd{g}d{c}d{g}B{d}G{e}G{d}B|  !
{g}AB{GdG}cd{g}ef{a}ge|
{ag}a2{ef}ed{g}c{d}A{e}Ag|] [|
{cGdG}c2{a}gc{gef}ec{a}ge|  !
{g}c2{GdG}ef{a}ge{g}ce|
{Gdc}d2ad{g}fdaf|
{Gdc}de{g}fgag{a}fa{cGdG}c2{a}gc{gef}ec{a}ge|  !
{g}c2{GdG}ef{a}ge{g}ce|
af{a}ge{g}fd{gef}ed|
{g}ca{ef}ed{g}c{d}A{e}A{d}B|] [|  !
{g}G{d}G{e}G{d}B{g}G{d}G{e}G{d}B|
{g}Gd{g}cd{g}B{d}G{e}G{d}B|
{g}A{d}B{g}A{d}G{g}A{d}A{e}A{d}B|  !
{gef}ecae{g}c{d}A{e}A{d}B{g}G{d}G{e}G{d}B{g}G{d}G{e}G{d}B|
{g}Gd{g}cd{g}B{d}G{e}G{d}B|
{g}AB{GdG}cd{g}ef{a}ge|  !
{ag}a2{ef}ed{g}c{d}A{e}A|]
